X:1
T:Title
%%score { ( 1 4 ) | ( 2 3 ) }
L:1/8
Q:1/4=84
M:6/8
K:G
V:1 treble nm="Grand Piano"
V:4 treble 
V:2 bass 
V:3 bass 
V:1
 [B,D][B,D][B,D] [CE][B,D][B,D] | [DG]2 A B3 | BBB BAG | [FA]2 [GB] [FA]3 | ddd edG | %5
w: B.~E.~Warren * * * * *|||||
 .[CEA]2 [G,CE] [G,B,D]2 [B,D] |[M:13/16] [B,DG]<[B,DG][B,DG][DGB]3/2[CDA][CDA] | %7
w: ||
[M:5/8] [G,B,DG]-[G,B,DG]- [G,B,DG]3 |[M:1/8] B |[M:3/4] d<d de dB | d4- dG | %11
w: ||||
[M:13/16] [GB]<[GB][B,G][CFA]3/2[B,DG][DB] |[M:3/4] [G,B,DG]6 | [G,CE]3 [G,B,D]2 [B,D] | %14
w: |||
[M:31/32] (5:4:21[G,B,G]3/4-[G,B,G]3/16-[G,B,G]/32 z3/4 z3/16 z/32 z3/2 z3/8 z/16 [Ec]3/4-[Ec]3/16-[Ec]/32B3/2-B3/8-B/16G3/4-G3/16-G/32A3/2-A3/8-A/16 | %15
w: |
[M:3/4] [B,DG]4- [B,DG]-[B,DG]/4 z/4 z/ |] %16
w: |
V:2
 [G,,G,][G,,G,][G,,G,] [G,,G,][G,,G,][G,,G,] | [B,,G,]2 [D,F,D][K:treble] [G,D]3 | %2
 [G,DG][G,DG][G,DG] [G,DG][G,CG][K:bass][G,B,] | [D,D]2 [D,D] [D,D]3 | %4
 [G,B,G][G,B,G][G,B,G] [G,CG][G,B,G][K:bass][G,B,D] | z GC, G,,2 G, |[M:13/16] G,<G,G,D,3/2D,D, | %7
[M:5/8] G,,-G,,- G,,3 |[M:1/8][K:treble] [G,D] | %9
[M:3/4] [G,B,G]<[G,B,G] [G,B,G][G,CG] [G,B,G][G,G] | [G,B,G]4- [G,B,G][K:bass][G,B,D] | %11
[M:13/16] [D,D]<[D,D]D,D,3/2D,D, |[M:3/4] G,,6 | C,3 G,,2 G, | %14
[M:31/32] (5:4:21E,3/4-E,3/16-E,/32 z3/4 z3/16 z/32 z3/2 z3/8 z/16 [C,G,]3/4-[C,G,]3/16-[C,G,]/32[D,G,D]3/2-[D,G,D]3/8-[D,G,D]/16[D,B,D]3/4-[D,B,D]3/16-[D,B,D]/32[D,CD]3/2-[D,CD]3/8-[D,CD]/16 | %15
[M:3/4] [G,,G,]4- [G,,G,]-[G,,G,]/4 z/4 z/ |] %16
V:3
 x6 | x3[K:treble] x3 | x5[K:bass] x | x6 | x5[K:bass] x | .C,3 z3 |[M:13/16] x13/2 |[M:5/8] x5 | %8
[M:1/8][K:treble] x |[M:3/4] x6 | x5[K:bass] x |[M:13/16] x13/2 |[M:3/4] x6 | x6 | %14
[M:31/32] z/ E,/4-E,/4-E,/4-E,/4-E,/4-E,/4-E,/-<E,/ z/4 z/4 z/4 z/4 z/4 z/4 z/4 z/4 z/4 z/4 z/4 z/4 z/4 z/4 z/4 z/4 z/4 z/ | %15
[M:3/4] x6 |] %16
V:4
 x6 | x6 | x6 | x6 | x6 | x6 |[M:13/16] x13/2 |[M:5/8] x5 |[M:1/8] x |[M:3/4] x6 | x6 | %11
[M:13/16] x13/2 |[M:3/4] x6 | x6 | %14
[M:31/32] z/ [G,B,G]/4-[G,B,G]/4-[G,B,G]/4-[G,B,G]/4-[G,B,G]/4-[G,B,G]/4-[G,B,G]/-<[G,B,G]/ z/4 z/4 z/4 z/4 z/4 z/4 z/4 z/4 z/4 z/4 z/4 z/4 z/4 z/4 z/4 z/4 z/4 z/ | %15
[M:3/4] x6 |] %16

